devices/hardware/drive-multidisk.svg

<?xml version="1.0" encoding="UTF-8" standalone="no"?>
<!-- Created with Inkscape (http://www.inkscape.org/) -->

<svg
   xmlns:dc="http://purl.org/dc/elements/1.1/"
   xmlns:cc="http://creativecommons.org/ns#"
   xmlns:rdf="http://www.w3.org/1999/02/22-rdf-syntax-ns#"
   xmlns:svg="http://www.w3.org/2000/svg"
   xmlns="http://www.w3.org/2000/svg"
   xmlns:sodipodi="http://sodipodi.sourceforge.net/DTD/sodipodi-0.dtd"
   xmlns:inkscape="http://www.inkscape.org/namespaces/inkscape"
   id="svg2"
   version="1.1"
   inkscape:version="0.92.2 5c3e80d, 2017-08-06"
   width="512"
   height="512"
   sodipodi:docname="drive-multidisk.svg">
  <metadata
     id="metadata8">
    <rdf:RDF>
      <cc:Work
         rdf:about="">
        <dc:format>image/svg+xml</dc:format>
        <dc:type
           rdf:resource="http://purl.org/dc/dcmitype/StillImage" />
        <dc:title />
      </cc:Work>
    </rdf:RDF>
  </metadata>
  <defs
     id="defs6" />
  <sodipodi:namedview
     pagecolor="#ffffff"
     bordercolor="#666666"
     borderopacity="1"
     objecttolerance="10"
     gridtolerance="10"
     guidetolerance="10"
     inkscape:pageopacity="0"
     inkscape:pageshadow="2"
     inkscape:window-width="1366"
     inkscape:window-height="717"
     id="namedview4"
     showgrid="false"
     inkscape:zoom="0.48230404"
     inkscape:cx="282.19818"
     inkscape:cy="270.24895"
     inkscape:window-x="0"
     inkscape:window-y="24"
     inkscape:window-maximized="1"
     inkscape:current-layer="svg2" />
  <g
     id="g827">
    <path
       id="path27"
       d="M 432.91327,56.473967 C 535.10618,145.04856 538.74005,306.17367 441.03007,416.37276 343.3201,526.57184 181.27964,544.10061 79.086729,455.52602 -23.106186,366.95143 -26.740042,205.82631 70.969928,95.627227 168.6799,-14.571854 330.72036,-32.100623 432.91327,56.473967 Z"
       inkscape:connector-curvature="0"
       style="fill:#3689e6;fill-opacity:1;stroke-width:11.10955811" />
    <path
       id="path51"
       d="M 511.63551,224.90351 C 510.08412,286.21516 486.47428,349.05812 440.66913,400.71799 342.95915,510.91711 180.91869,528.44584 78.725776,439.87129 30.827124,398.35563 4.4968216,340.92284 0.19382768,280.2288 0.79907934,346.58548 27.117411,410.48217 79.078682,455.51906 181.27159,544.09361 343.31975,526.55619 441.02202,416.36576 490.72697,360.30766 514.02704,291.0748 511.63551,224.90351 Z"
       inkscape:connector-curvature="0"
       style="opacity:1;stroke-width:11.10955811;fill:#000000;fill-opacity:0.49019608" />
    <path
       inkscape:connector-curvature="0"
       style="fill:#000000;fill-opacity:0.49019608;stroke-width:1.40076447"
       d="m 222.02329,120.00208 c -65.6629,-0.0488 -62.72449,1.3012 -70.73047,10.39649 -2.96021,3.36298 -6.12522,8.58924 -7.03125,11.61328 -2.33638,7.79798 -2.35656,260.22183 -0.0215,268.01562 2.16986,7.24233 10.20612,16.38771 17.20704,19.58399 5.39803,2.46446 11.23721,2.57783 117.14453,2.26172 l 111.46484,-0.33203 5.83789,-3.86524 c 3.21111,-2.12523 7.57789,-6.48998 9.70313,-9.70117 l 3.86328,-5.83984 0.32812,-134.57618 0.33008,-134.57617 -3.83203,-6.95117 c -2.19402,-3.98135 -6.42397,-8.76827 -9.90234,-11.20508 l -6.07422,-4.25586 -110.89063,-0.38867 c -23.43706,-0.0824 -42.24351,-0.16844 -57.39648,-0.17969 z m 55.76562,32.85157 c 16.09864,0.0571 19.3039,0.48298 27.65235,3.67382 34.87956,13.33129 56.95163,42.64441 59.41211,78.90625 1.43332,21.1238 -7.29439,46.54105 -21.34961,62.17383 l -6.45703,7.18164 -5.77344,-4.5625 c -3.17475,-2.50866 -9.25838,-7.63552 -13.51953,-11.39453 -10.52386,-9.28371 -16.90081,-12.01367 -28.0586,-12.01367 -14.92126,0 -26.68065,7.54189 -32.66211,20.94922 -2.86361,6.41876 -3.74707,18.75882 -1.78125,24.86328 1.34401,4.17357 -0.42875,4.03433 -12.10547,-0.94727 -25.98667,-11.08661 -45.98802,-34.33808 -52.19921,-60.68164 -2.70586,-11.4763 -2.66428,-31.38176 0.0879,-42.17578 7.35365,-28.8412 30.26484,-53.50026 58.21289,-62.65429 8.84056,-2.89562 12.95915,-3.37366 28.54101,-3.31836 z m -1.4414,71.08984 c -3.88582,0.0143 -7.40534,1.60616 -10.79688,4.83203 -7.05101,6.70664 -6.38946,18.07966 1.41016,24.21484 2.29378,1.8043 5.65822,2.75391 9.75586,2.75391 5.2454,0 7.02345,-0.76759 11.01758,-4.76172 3.99413,-3.99413 4.76367,-5.77218 4.76367,-11.01758 0,-7.62732 -3.61421,-12.76168 -10.60352,-15.06836 -1.93968,-0.64015 -3.78059,-0.95961 -5.54687,-0.95312 z m 12.93359,78.07617 c 1.38325,0.0273 3.82029,0.81426 5.41602,1.75 5.68235,3.33209 68.33295,49.42082 74.23828,54.61328 6.97614,6.13405 9.62475,12.78649 8.625,21.65625 -0.80581,7.14906 -4.08585,12.25657 -10.8086,16.83203 -5.97893,4.06924 -17.03515,4.29328 -23.30078,0.47266 -5.93279,-3.61767 -10.77536,-9.62496 -39.15234,-48.57031 -14.78467,-20.2909 -24.40764,-34.76322 -24.40821,-36.71094 -10e-4,-3.84607 5.85823,-10.11277 9.39063,-10.04297 z m 1.86914,48.76758 c 2.51658,0 4.43319,2.42953 5.75,7.28711 0.4682,1.66796 1.0379,5.11943 1.71094,10.35742 1.72649,13.22666 3.87802,24.52271 6.45312,33.88672 l 2.15039,7.54883 c 1.11198,4.03823 1.66797,6.52649 1.66797,7.46289 0,1.25829 -0.48355,2.31154 -1.44922,3.16015 -0.9364,0.84862 -2.00336,1.27344 -3.20312,1.27344 -1.58018,0 -2.88206,-0.82028 -3.90625,-2.45898 -0.87788,-1.4046 -1.66879,-3.74604 -2.3711,-7.02344 l -1.58007,-7.54883 c -1.19977,-4.682 -3.10072,-15.01094 -5.70508,-30.98828 l -8.7793,26.4668 -2.58984,8.33984 c -1.05345,3.30667 -2.15173,6.01419 -3.29297,8.1211 -1.22903,2.22395 -2.88135,3.33593 -4.95898,3.33593 -1.72649,0 -3.08711,-0.93579 -4.08204,-2.80859 -0.64377,-1.22903 -1.22913,-2.7952 -1.75586,-4.69727 l -1.27343,-4.87304 c -2.95552,-10.32968 -5.55929,-21.3908 -7.8125,-33.1836 l -1.58008,7.85742 -5.66211,23.17579 c -0.2341,2.72141 -0.96629,6.74453 -2.19531,12.07031 -0.87788,2.28248 -2.32659,3.42383 -4.34571,3.42383 -1.43386,0 -2.57521,-0.51097 -3.42382,-1.53516 -0.73157,-0.87788 -1.09766,-1.9605 -1.09766,-3.24805 0,-4.88684 1.01018,-10.88725 3.0293,-17.99804 l 4.82812,-17.6875 2.54688,-13.82813 c 1.28755,-6.46702 2.64816,-10.69374 4.08203,-12.68359 1.1705,-1.69723 2.61726,-2.54688 4.34375,-2.54688 1.90206,0 3.32141,1.08262 4.25781,3.24805 1.14124,2.60436 2.37069,7.91566 3.6875,15.93359 1.55091,9.62738 3.96478,20.04441 7.24219,31.25196 4.33085,-11.26608 8.07793,-23.00065 11.23828,-35.20313 l 1.3164,-6.4082 c 0.52673,-2.5751 1.21389,-4.65225 2.0625,-6.23242 1.14124,-2.16543 2.70742,-3.24805 4.69727,-3.24805 z m -99.47851,17.00586 c 2.8284,-0.0351 5.70793,0.76111 8.48632,2.40234 4.09545,2.41924 8.29297,9.36306 8.29297,13.71875 0,4.47372 -4.57648,12.02925 -8.52344,14.07032 -8.67088,4.48386 -18.90749,1.34507 -22.87304,-7.01172 -3.28926,-6.93161 -1.77357,-13.63545 4.28515,-18.95508 3.14408,-2.76054 6.69551,-4.17947 10.33204,-4.22461 z"
       id="path883" />
    <path
       id="path867"
       d="m 202.02344,100.00195 c -65.6629,-0.04875 -62.72449,1.3012 -70.73047,10.39649 -2.96021,3.36298 -6.12522,8.58924 -7.03125,11.61328 -2.33638,7.79798 -2.35656,260.22183 -0.0215,268.01562 2.16986,7.24233 10.20612,16.38771 17.20704,19.58399 5.39803,2.46446 11.23721,2.57783 117.14453,2.26172 l 111.46484,-0.33203 5.83789,-3.86524 c 3.21111,-2.12523 7.57789,-6.48998 9.70313,-9.70117 l 3.86328,-5.83984 0.32812,-134.57618 0.33008,-134.57617 -3.83203,-6.95117 c -2.19402,-3.98135 -6.42397,-8.76827 -9.90234,-11.20508 l -6.07422,-4.25586 -110.89063,-0.38867 c -23.43706,-0.0824 -42.24351,-0.16844 -57.39648,-0.17969 z m 55.76562,32.85157 c 16.09864,0.0571 19.3039,0.48298 27.65235,3.67382 34.87956,13.33129 56.95163,42.64441 59.41211,78.90625 1.43332,21.1238 -7.29439,46.54105 -21.34961,62.17383 l -6.45703,7.18164 -5.77344,-4.5625 c -3.17475,-2.50866 -9.25838,-7.63552 -13.51953,-11.39453 -10.52386,-9.28371 -16.90081,-12.01367 -28.0586,-12.01367 -14.92126,0 -26.68065,7.54189 -32.66211,20.94922 -2.86361,6.41876 -3.74707,18.75882 -1.78125,24.86328 1.34401,4.17357 -0.42875,4.03433 -12.10547,-0.94727 -25.98667,-11.08661 -45.98802,-34.33808 -52.19921,-60.68164 -2.70586,-11.4763 -2.66428,-31.38176 0.0879,-42.17578 7.35365,-28.8412 30.26484,-53.50026 58.21289,-62.65429 8.84056,-2.89562 12.95915,-3.37366 28.54101,-3.31836 z m -1.4414,71.08984 c -3.88582,0.0143 -7.40534,1.60616 -10.79688,4.83203 -7.05101,6.70664 -6.38946,18.07966 1.41016,24.21484 2.29378,1.8043 5.65822,2.75391 9.75586,2.75391 5.2454,0 7.02345,-0.76759 11.01758,-4.76172 3.99413,-3.99413 4.76367,-5.77218 4.76367,-11.01758 0,-7.62732 -3.61421,-12.76168 -10.60352,-15.06836 -1.93968,-0.64015 -3.78059,-0.95961 -5.54687,-0.95312 z m 12.93359,78.07617 c 1.38325,0.0273 3.82029,0.81426 5.41602,1.75 5.68235,3.33209 68.33295,49.42082 74.23828,54.61328 6.97614,6.13405 9.62475,12.78649 8.625,21.65625 -0.80581,7.14906 -4.08585,12.25657 -10.8086,16.83203 -5.97893,4.06924 -17.03515,4.29328 -23.30078,0.47266 -5.93279,-3.61767 -10.77536,-9.62496 -39.15234,-48.57031 -14.78467,-20.2909 -24.40764,-34.76322 -24.40821,-36.71094 -0.001,-3.84607 5.85823,-10.11277 9.39063,-10.04297 z m 1.86914,48.76758 c 2.51658,0 4.43319,2.42953 5.75,7.28711 0.4682,1.66796 1.0379,5.11943 1.71094,10.35742 1.72649,13.22666 3.87802,24.52271 6.45312,33.88672 l 2.15039,7.54883 c 1.11198,4.03823 1.66797,6.52649 1.66797,7.46289 0,1.25829 -0.48355,2.31154 -1.44922,3.16015 -0.9364,0.84862 -2.00336,1.27344 -3.20312,1.27344 -1.58018,0 -2.88206,-0.82028 -3.90625,-2.45898 -0.87788,-1.4046 -1.66879,-3.74604 -2.3711,-7.02344 l -1.58007,-7.54883 c -1.19977,-4.682 -3.10072,-15.01094 -5.70508,-30.98828 l -8.7793,26.4668 -2.58984,8.33984 c -1.05345,3.30667 -2.15173,6.01419 -3.29297,8.1211 -1.22903,2.22395 -2.88135,3.33593 -4.95898,3.33593 -1.72649,0 -3.08711,-0.93579 -4.08204,-2.80859 -0.64377,-1.22903 -1.22913,-2.7952 -1.75586,-4.69727 l -1.27343,-4.87304 c -2.95552,-10.32968 -5.55929,-21.3908 -7.8125,-33.1836 l -1.58008,7.85742 -5.66211,23.17579 c -0.2341,2.72141 -0.96629,6.74453 -2.19531,12.07031 -0.87788,2.28248 -2.32659,3.42383 -4.34571,3.42383 -1.43386,0 -2.57521,-0.51097 -3.42382,-1.53516 -0.73157,-0.87788 -1.09766,-1.9605 -1.09766,-3.24805 0,-4.88684 1.01018,-10.88725 3.0293,-17.99804 l 4.82812,-17.6875 2.54688,-13.82813 c 1.28755,-6.46702 2.64816,-10.69374 4.08203,-12.68359 1.1705,-1.69723 2.61726,-2.54688 4.34375,-2.54688 1.90206,0 3.32141,1.08262 4.25781,3.24805 1.14124,2.60436 2.37069,7.91566 3.6875,15.93359 1.55091,9.62738 3.96478,20.04441 7.24219,31.25196 4.33085,-11.26608 8.07793,-23.00065 11.23828,-35.20313 l 1.3164,-6.4082 c 0.52673,-2.5751 1.21389,-4.65225 2.0625,-6.23242 1.14124,-2.16543 2.70742,-3.24805 4.69727,-3.24805 z m -99.47851,17.00586 c 2.8284,-0.0351 5.70793,0.76111 8.48632,2.40234 4.09545,2.41924 8.29297,9.36306 8.29297,13.71875 0,4.47372 -4.57648,12.02925 -8.52344,14.07032 -8.67088,4.48386 -18.90749,1.34507 -22.87304,-7.01172 -3.28926,-6.93161 -1.77357,-13.63545 4.28515,-18.95508 3.14408,-2.76054 6.69551,-4.17947 10.33204,-4.22461 z"
       style="fill:#ffffff;stroke-width:1.40076447"
       inkscape:connector-curvature="0" />
  </g>
</svg>

<?xml version="1.0" encoding="UTF-8" standalone="no"?>
<!-- Created with Inkscape (http://www.inkscape.org/) -->

<svg
   xmlns:dc="http://purl.org/dc/elements/1.1/"
   xmlns:cc="http://creativecommons.org/ns#"
   xmlns:rdf="http://www.w3.org/1999/02/22-rdf-syntax-ns#"
   xmlns:svg="http://www.w3.org/2000/svg"
   xmlns="http://www.w3.org/2000/svg"
   xmlns:sodipodi="http://sodipodi.sourceforge.net/DTD/sodipodi-0.dtd"
   xmlns:inkscape="http://www.inkscape.org/namespaces/inkscape"
   id="svg2"
   version="1.1"
   inkscape:version="0.92.2 5c3e80d, 2017-08-06"
   width="512"
   height="512"
   sodipodi:docname="drive-multidisk.svg">
  <metadata
     id="metadata8">
    <rdf:RDF>
      <cc:Work
         rdf:about="">
        <dc:format>image/svg+xml</dc:format>
        <dc:type
           rdf:resource="http://purl.org/dc/dcmitype/StillImage" />
        <dc:title></dc:title>
      </cc:Work>
    </rdf:RDF>
  </metadata>
  <defs
     id="defs6" />
  <sodipodi:namedview
     pagecolor="#ffffff"
     bordercolor="#666666"
     borderopacity="1"
     objecttolerance="10"
     gridtolerance="10"
     guidetolerance="10"
     inkscape:pageopacity="0"
     inkscape:pageshadow="2"
     inkscape:window-width="1366"
     inkscape:window-height="717"
     id="namedview4"
     showgrid="false"
     inkscape:zoom="0.48230404"
     inkscape:cx="641.92977"
     inkscape:cy="270.24895"
     inkscape:window-x="0"
     inkscape:window-y="24"
     inkscape:window-maximized="1"
     inkscape:current-layer="svg2" />
  <g
     id="g889">
    <path
       id="path27"
       d="M 432.91327,56.473967 C 535.10618,145.04856 538.74005,306.17367 441.03007,416.37276 343.3201,526.57184 181.27964,544.10061 79.086729,455.52602 -23.106186,366.95143 -26.740042,205.82631 70.969928,95.627227 168.6799,-14.571854 330.72036,-32.100623 432.91327,56.473967 Z"
       inkscape:connector-curvature="0"
       style="fill:#3689e6;fill-opacity:1;stroke-width:11.10955811" />
    <path
       id="path51"
       d="M 511.63551,224.90351 C 510.08412,286.21516 486.47428,349.05812 440.66913,400.71799 342.95915,510.91711 180.91869,528.44584 78.725776,439.87129 30.827124,398.35563 4.4968216,340.92284 0.19382768,280.2288 0.79907934,346.58548 27.117411,410.48217 79.078682,455.51906 181.27159,544.09361 343.31975,526.55619 441.02202,416.36576 490.72697,360.30766 514.02704,291.0748 511.63551,224.90351 Z"
       inkscape:connector-curvature="0"
       style="opacity:0.1;stroke-width:11.10955811" />
    <path
       inkscape:connector-curvature="0"
       style="fill:#317ccf;fill-opacity:1;stroke-width:1.40076447"
       d="m 212.02329,110.00208 c -65.6629,-0.0488 -62.72449,1.3012 -70.73047,10.39649 -2.96021,3.36298 -6.12522,8.58924 -7.03125,11.61328 -2.33638,7.79798 -2.35656,260.22183 -0.0215,268.01562 2.16986,7.24233 10.20612,16.38771 17.20704,19.58399 5.39803,2.46446 11.23721,2.57783 117.14453,2.26172 l 111.46484,-0.33203 5.83789,-3.86524 c 3.21111,-2.12523 7.57789,-6.48998 9.70313,-9.70117 l 3.86328,-5.83984 0.32812,-134.57618 0.33008,-134.57617 -3.83203,-6.95117 c -2.19402,-3.98135 -6.42397,-8.76827 -9.90234,-11.20508 l -6.07422,-4.25586 -110.89063,-0.38867 c -23.43706,-0.0824 -42.24351,-0.16844 -57.39648,-0.17969 z m 55.76562,32.85157 c 16.09864,0.0571 19.3039,0.48298 27.65235,3.67382 34.87956,13.33129 56.95163,42.64441 59.41211,78.90625 1.43332,21.1238 -7.29439,46.54105 -21.34961,62.17383 l -6.45703,7.18164 -5.77344,-4.5625 c -3.17475,-2.50866 -9.25838,-7.63552 -13.51953,-11.39453 -10.52386,-9.28371 -16.90081,-12.01367 -28.0586,-12.01367 -14.92126,0 -26.68065,7.54189 -32.66211,20.94922 -2.86361,6.41876 -3.74707,18.75882 -1.78125,24.86328 1.34401,4.17357 -0.42875,4.03433 -12.10547,-0.94727 -25.98667,-11.08661 -45.98802,-34.33808 -52.19921,-60.68164 -2.70586,-11.4763 -2.66428,-31.38176 0.0879,-42.17578 7.35365,-28.8412 30.26484,-53.50026 58.21289,-62.65429 8.84056,-2.89562 12.95915,-3.37366 28.54101,-3.31836 z m -1.4414,71.08984 c -3.88582,0.0143 -7.40534,1.60616 -10.79688,4.83203 -7.05101,6.70664 -6.38946,18.07966 1.41016,24.21484 2.29378,1.8043 5.65822,2.75391 9.75586,2.75391 5.2454,0 7.02345,-0.76759 11.01758,-4.76172 3.99413,-3.99413 4.76367,-5.77218 4.76367,-11.01758 0,-7.62732 -3.61421,-12.76168 -10.60352,-15.06836 -1.93968,-0.64015 -3.78059,-0.95961 -5.54687,-0.95312 z m 12.93359,78.07617 c 1.38325,0.0273 3.82029,0.81426 5.41602,1.75 5.68235,3.33209 68.33295,49.42082 74.23828,54.61328 6.97614,6.13405 9.62475,12.78649 8.625,21.65625 -0.80581,7.14906 -4.08585,12.25657 -10.8086,16.83203 -5.97893,4.06924 -17.03515,4.29328 -23.30078,0.47266 -5.93279,-3.61767 -10.77536,-9.62496 -39.15234,-48.57031 -14.78467,-20.2909 -24.40764,-34.76322 -24.40821,-36.71094 -10e-4,-3.84607 5.85823,-10.11277 9.39063,-10.04297 z m 1.86914,48.76758 c 2.51658,0 4.43319,2.42953 5.75,7.28711 0.4682,1.66796 1.0379,5.11943 1.71094,10.35742 1.72649,13.22666 3.87802,24.52271 6.45312,33.88672 l 2.15039,7.54883 c 1.11198,4.03823 1.66797,6.52649 1.66797,7.46289 0,1.25829 -0.48355,2.31154 -1.44922,3.16015 -0.9364,0.84862 -2.00336,1.27344 -3.20312,1.27344 -1.58018,0 -2.88206,-0.82028 -3.90625,-2.45898 -0.87788,-1.4046 -1.66879,-3.74604 -2.3711,-7.02344 l -1.58007,-7.54883 c -1.19977,-4.682 -3.10072,-15.01094 -5.70508,-30.98828 l -8.7793,26.4668 -2.58984,8.33984 c -1.05345,3.30667 -2.15173,6.01419 -3.29297,8.1211 -1.22903,2.22395 -2.88135,3.33593 -4.95898,3.33593 -1.72649,0 -3.08711,-0.93579 -4.08204,-2.80859 -0.64377,-1.22903 -1.22913,-2.7952 -1.75586,-4.69727 l -1.27343,-4.87304 c -2.95552,-10.32968 -5.55929,-21.3908 -7.8125,-33.1836 l -1.58008,7.85742 -5.66211,23.17579 c -0.2341,2.72141 -0.96629,6.74453 -2.19531,12.07031 -0.87788,2.28248 -2.32659,3.42383 -4.34571,3.42383 -1.43386,0 -2.57521,-0.51097 -3.42382,-1.53516 -0.73157,-0.87788 -1.09766,-1.9605 -1.09766,-3.24805 0,-4.88684 1.01018,-10.88725 3.0293,-17.99804 l 4.82812,-17.6875 2.54688,-13.82813 c 1.28755,-6.46702 2.64816,-10.69374 4.08203,-12.68359 1.1705,-1.69723 2.61726,-2.54688 4.34375,-2.54688 1.90206,0 3.32141,1.08262 4.25781,3.24805 1.14124,2.60436 2.37069,7.91566 3.6875,15.93359 1.55091,9.62738 3.96478,20.04441 7.24219,31.25196 4.33085,-11.26608 8.07793,-23.00065 11.23828,-35.20313 l 1.3164,-6.4082 c 0.52673,-2.5751 1.21389,-4.65225 2.0625,-6.23242 1.14124,-2.16543 2.70742,-3.24805 4.69727,-3.24805 z m -99.47851,17.00586 c 2.8284,-0.0351 5.70793,0.76111 8.48632,2.40234 4.09545,2.41924 8.29297,9.36306 8.29297,13.71875 0,4.47372 -4.57648,12.02925 -8.52344,14.07032 -8.67088,4.48386 -18.90749,1.34507 -22.87304,-7.01172 -3.28926,-6.93161 -1.77357,-13.63545 4.28515,-18.95508 3.14408,-2.76054 6.69551,-4.17947 10.33204,-4.22461 z"
       id="path883" />
    <path
       id="path867"
       d="M 202.02344 100.00195 C 136.36054 99.953201 139.29895 101.30315 131.29297 110.39844 C 128.33276 113.76142 125.16775 118.98768 124.26172 122.01172 C 121.92534 129.8097 121.90516 382.23355 124.24023 390.02734 C 126.41009 397.26967 134.44635 406.41505 141.44727 409.61133 C 146.8453 412.07579 152.68448 412.18916 258.5918 411.87305 L 370.05664 411.54102 L 375.89453 407.67578 C 379.10564 405.55055 383.47242 401.1858 385.59766 397.97461 L 389.46094 392.13477 L 389.78906 257.55859 L 390.11914 122.98242 L 386.28711 116.03125 C 384.09309 112.0499 379.86314 107.26298 376.38477 104.82617 L 370.31055 100.57031 L 259.41992 100.18164 C 235.98286 100.09922 217.17641 100.0132 202.02344 100.00195 z M 257.78906 132.85352 C 273.8877 132.91065 277.09296 133.3365 285.44141 136.52734 C 320.32097 149.85863 342.39304 179.17175 344.85352 215.43359 C 346.28684 236.55739 337.55913 261.97464 323.50391 277.60742 L 317.04688 284.78906 L 311.27344 280.22656 C 308.09869 277.7179 302.01506 272.59104 297.75391 268.83203 C 287.23005 259.54832 280.8531 256.81836 269.69531 256.81836 C 254.77405 256.81836 243.01466 264.36025 237.0332 277.76758 C 234.16959 284.18634 233.28613 296.5264 235.25195 302.63086 C 236.59596 306.80443 234.8232 306.66519 223.14648 301.68359 C 197.15981 290.59698 177.15846 267.34551 170.94727 241.00195 C 168.24141 229.52565 168.28299 209.62019 171.03516 198.82617 C 178.38881 169.98497 201.3 145.32591 229.24805 136.17188 C 238.08861 133.27626 242.2072 132.79822 257.78906 132.85352 z M 256.34766 203.94336 C 252.46184 203.95764 248.94232 205.54952 245.55078 208.77539 C 238.49977 215.48203 239.16132 226.85505 246.96094 232.99023 C 249.25472 234.79453 252.61916 235.74414 256.7168 235.74414 C 261.9622 235.74414 263.74025 234.97655 267.73438 230.98242 C 271.72851 226.98829 272.49805 225.21024 272.49805 219.96484 C 272.49805 212.33752 268.88384 207.20316 261.89453 204.89648 C 259.95485 204.25633 258.11394 203.93687 256.34766 203.94336 z M 269.28125 282.01953 C 270.6645 282.04682 273.10154 282.83379 274.69727 283.76953 C 280.37962 287.10162 343.03022 333.19035 348.93555 338.38281 C 355.91169 344.51686 358.5603 351.1693 357.56055 360.03906 C 356.75474 367.18812 353.4747 372.29563 346.75195 376.87109 C 340.77302 380.94033 329.7168 381.16437 323.45117 377.34375 C 317.51838 373.72608 312.67581 367.71879 284.29883 328.77344 C 269.51416 308.48254 259.89119 294.01022 259.89062 292.0625 C 259.88953 288.21643 265.74885 281.94973 269.28125 282.01953 z M 271.15039 330.78711 C 273.66697 330.78711 275.58358 333.21664 276.90039 338.07422 C 277.36859 339.74218 277.93829 343.19365 278.61133 348.43164 C 280.33782 361.6583 282.48935 372.95435 285.06445 382.31836 L 287.21484 389.86719 C 288.32682 393.90542 288.88281 396.39368 288.88281 397.33008 C 288.88281 398.58837 288.39926 399.64162 287.43359 400.49023 C 286.49719 401.33885 285.43023 401.76367 284.23047 401.76367 C 282.65029 401.76367 281.34841 400.94339 280.32422 399.30469 C 279.44634 397.90009 278.65543 395.55865 277.95312 392.28125 L 276.37305 384.73242 C 275.17328 380.05042 273.27233 369.72148 270.66797 353.74414 L 261.88867 380.21094 L 259.29883 388.55078 C 258.24538 391.85745 257.1471 394.56497 256.00586 396.67188 C 254.77683 398.89583 253.12451 400.00781 251.04688 400.00781 C 249.32039 400.00781 247.95977 399.07202 246.96484 397.19922 C 246.32107 395.97019 245.73571 394.40402 245.20898 392.50195 L 243.93555 387.62891 C 240.98003 377.29923 238.37626 366.23811 236.12305 354.44531 L 234.54297 362.30273 L 228.88086 385.47852 C 228.64676 388.19993 227.91457 392.22305 226.68555 397.54883 C 225.80767 399.83131 224.35896 400.97266 222.33984 400.97266 C 220.90598 400.97266 219.76463 400.46169 218.91602 399.4375 C 218.18445 398.55962 217.81836 397.477 217.81836 396.18945 C 217.81836 391.30261 218.82854 385.3022 220.84766 378.19141 L 225.67578 360.50391 L 228.22266 346.67578 C 229.51021 340.20876 230.87082 335.98204 232.30469 333.99219 C 233.47519 332.29496 234.92195 331.44531 236.64844 331.44531 C 238.5505 331.44531 239.96985 332.52793 240.90625 334.69336 C 242.04749 337.29772 243.27694 342.60902 244.59375 350.62695 C 246.14466 360.25433 248.55853 370.67136 251.83594 381.87891 C 256.16679 370.61283 259.91387 358.87826 263.07422 346.67578 L 264.39062 340.26758 C 264.91735 337.69248 265.60451 335.61533 266.45312 334.03516 C 267.59436 331.86973 269.16054 330.78711 271.15039 330.78711 z M 171.67188 347.79297 C 174.50028 347.75786 177.37981 348.55408 180.1582 350.19531 C 184.25365 352.61455 188.45117 359.55837 188.45117 363.91406 C 188.45117 368.38778 183.87469 375.94331 179.92773 377.98438 C 171.25685 382.46824 161.02024 379.32945 157.05469 370.97266 C 153.76543 364.04105 155.28112 357.33721 161.33984 352.01758 C 164.48392 349.25704 168.03535 347.83811 171.67188 347.79297 z "
       style="fill:#ffffff;stroke-width:1.40076447" />
  </g>
</svg>
